IMG/ICON/square-facebook-brands-solid.svg

<svg xmlns="http://www.w3.org/2000/svg" viewBox="0 0 448 512"><!--!Font Awesome Free 6.6.0 by @fontawesome - https://fontawesome.com License - https://fontawesome.com/license/free Copyright 2024 Fonticons, Inc.--><path d="M64 32C28.7 32 0 60.7 0 96V416c0 35.3 28.7 64 64 64h98.2V334.2H109.4V256h52.8V222.3c0-87.1 39.4-127.5 125-127.5c16.2 0 44.2 3.2 55.7 6.4V172c-6-.6-16.5-1-29.6-1c-42 0-58.2 15.9-58.2 57.2V256h83.6l-14.4 78.2H255V480H384c35.3 0 64-28.7 64-64V96c0-35.3-28.7-64-64-64H64z"/></svg>

<svg width="448" height="512" viewBox="0 0 448 512" fill="none" xmlns="http://www.w3.org/2000/svg">
<path d="M64 32C28.7 32 0 60.7 0 96V416C0 451.3 28.7 480 64 480H162.2V334.2H109.4V256H162.2V222.3C162.2 135.2 201.6 94.8 287.2 94.8C303.4 94.8 331.4 98 342.9 101.2V172C336.9 171.4 326.4 171 313.3 171C271.3 171 255.1 186.9 255.1 228.2V256H338.7L324.3 334.2H255V480H384C419.3 480 448 451.3 448 416V96C448 60.7 419.3 32 384 32H64Z" fill="white"/>
</svg>
